X: 85
M: 2/2	% The book has just "2".
L: 1/8
K: Am
EA^GA |\
c2B2 e4 | dcBA e4 | dcBA ^G2A2 | B4 EA^GA | c2B2 e4 | dcBA e4 | dcBA cBA^G |


